X:1
T:Es wolt uns Gott
T:Es wolt uns Gott
T:Martin Luther
T:Ps 67 
T:Source : Harmonia-Canticum Ecclesiasticarum---Leipzig---F Schnelboltz---1597. Editor : André Vierendeels (27/01/15).
C:Martin Luther
%%score [ 1 2 3 4 ]
L:1/8
Q:1/4=120
M:2/2
K:F
V:1 treble nm="Cantus" snm="C"
V:2 treble nm="Altus" snm="A"
V:3 treble-8 nm="Tenor" snm="T"
V:4 bass nm="Bassus" snm="B"
V:1
 A4 B2 A2 | G2 A2 c4 | d4 c3 B | A2 c2 B2 A2 | B2 G2 F2 C2 | E2 F2 D4 | A4 B2 A2 | G2 A2 c4 | %8
w: Es wolt uns|Gott ge- ne-|dig seyn, _|_ und sei- nen|Se- gen ge- *|* * ben,|sein And- litz|uns mit hel-|
w: So dan- cken|Gott und lo-|ben dich, _|_ die Hey- den|ü- ber al- *|* * le,|und al- le|Welt die fre-|
w: Es dan- cken|Gott und lo-|ben dich, _|_ das Volck gu-|ten Tha- * *|* * ten,|da Land bring|frücht und bes-|
 d4 c3 B | A2 c2 B2 A2 | B2 G2 F2 C2 | E2 F2 D4 |: F4 _E2 D2 | C2 D2 B,2 C2 | D4 A4 | B2 G2 F2 G2 | %16
w: lem schein, _|_ er leucht zum|e- wign Le- *|* * ben.|Das wir er-|ken- nen sei- ne|Werd, und|was ihm liebt auff|
w: we sich, _|_ und sing mit|gros- sen Schal- *|* * le.|Das du auff|Er- den Rich- ter|bist, und|lest die Sünd nicht|
w: ser sich, _|_ dein wort ist|wol ge- rah- *|* * ren.|Uns se- gen|Va- ter und der|Sohn, uns|segn'- Gott der heil-|
 B4 A4 | d4 c2 A2 | c2 G2 F2 E2 | D2 C2 F2 G2 | A2 c2 A4 | G2 B2 A2 G2 |"^-natural" F2 C2 E2 F2 | %23
w: Er- den,|und Je- sus|Chri- stus heil und-|sterck, be- kand den|hey- den wer-|de, und sie zu|Gott be- keh- *|
w: wal- ten,|dein wort die|hut und wey- de|ist, die al- les|Volck er- hal-|ten, in rech- ter|bahn zu wal- *|
w: ge Geist,|dem al- le|Welt die eh- re|thut, für- ihm für-|chte al- ler-|meist, nun sprecht von|Her- zen. A- *|
 D8 :| %24
w: re.|
w: len.|
w: men.|
V:2
 F4 G2 ^F2 |"^-natural" G2 F2 _E4 | F4 F4- | F2 F2 F2 F2 | F2 E2 F2 ED |"^#""^#" C D2 C D4 | %6
w: Es wolt uns|Gott ge- ne-|dig seyn,|_ und sei- nen|Se- gen ge- * *|* * * ben,|
w: So dan- cken|Gott und lo-|ben dich,|_ die Hey- den|ü- ber al- * *|* * * le,|
w: Es dan- cken|Gott und lo-|ben dich,|_ das Volck gu-|ten Tha- * * *|* * * ten,|
 F4 G2 ^F2 |"^-natural" G2 F2 _E4 | F4 F4- | F2 F2 F2 F2 | F2 E2 F2 ED |"^#""^#" C D2 C D4 |: %12
w: sein And- litz|uns mit hel-|lem schein,|_ er leucht zum|e- wign Le- * *|* * * ben.|
w: und al- le|Welt die fre-|we sich,|_ und sing mit|gros- sen Schal- * *|* * * le.|
w: da Land bring|frücht und bes-|ser sich,|_ dein wort ist|wol ge- rah- * *|* * * ren.|
 D4 B,2 B,2 | G,2 B,2 G,2 A,2 | B,4 C4 | F2 E2 D2 D2 | G4 ^F4 | B4 G2 F2 | C2 D2 D2 C2 | %19
w: Das wir er-|ken- nen sei- ne|Werd, und|was ihm liebt auff|Er- den,|und Je- sus|Chri- stus heil und|
w: Das du auff|Er- den Rich- ter|bist, und|lest die Sünd nicht|wal- ten,|dein- wort die|hut und wey- de|
w: Uns se- gen|Va- ter und der|Sohn, uns|segn' Gott der heil-|ge Geist,|dem al- le|Welt die eh- re|
 A,2 A,2 D2 D2 | D2 E2 F4 | E2 F2 F2 E2 | F2 ED ^C D2 C | D8 :| %24
w: sterck, be- kand den|hey- den wer-|de, und sie zu|Gott be- * keh- * *|re.|
w: ist, die al- les|Volck er- hal-|ten, in rech- ter|bahn zu _ wal- * *|len.|
w: thut, für ihm für-|chte al- ler-|meist, nun sprecht von|Her- zen. _ A- * *|men.|
V:3
 d4 d2 d2 | B2 F2 G4 | B4 A3 B | c2 A2 B2 c2 | d2 c2 F2 G2 | A4 A4 | d4 d2 d2 | B2 F2 G4 | %8
w: Es wolt uns|Gott ge- ne-|dig seyn, _|_ und- sei- nen|Se- gen ge- *|* ben,|sein And- litz|uns mit hel-|
w: So dan- cken|Gott und lo-|ben dich, _|_ die Hey- den|ü- ber al- *|* le,|und al- le|Welt die fre-|
w: Es dan- cken|Gott und lo-|ben dich, _|_ das Volck gu-|ten Tha- * *|* ten,|da Land bring|frücht und bes-|
 B4 A3 B | c2 A2 B2 c2 | d2 c2 F2 G2 | A4 A4 |: B4 G2 F2 |"^b""^-natural" E2 D2 D2 E2 | F4 A4 | %15
w: lem schein, _|_ er leucht zum|e- wign Le- *|* ben.|Das wir er-|ken- nen sei- ne|Werd, und|
w: we sich, _|_ und sing mit|gros- sen Schal- *|* le.|Das du auff|Er- den Rich- ter|bist, und|
w: ser sich, _|_ dein wort ist|wol ge- rah- *|* ren.|Uns se- gen|Va- ter und der|Sohn, uns|
 d2 c2 A2 B2 | d4 d4 | f4 e2 d2 | c2 B2 B2 G2 | F2 E2 D2 G2 | F2 c2 c4 | c2 d2 c2 c2 | F2 G2 A4 | %23
w: was ihm liebt auff|Er- den,|und Je- sus|Chri- stus heil und|sterck, be- kand den|hey- den wer-|de, und sie zu|Gott be- keh-|
w: lest die Sünd nicht|wal- ten,|dein wort die|hut und wey- de|ist, die al- les|Volck er- hal-|ten, in rech- ten|bahn zu wal-|
w: segn' Gott der heil-|ge Geist,|dem al- le|Welt die eh- re|thut, für ihm für-|chte al- ler-|meist, nun sprecht von|Her- zen. A-|
 A8 :| %24
w: re.|
w: len.|
w: men.|
V:4
 D,4 G,2 D,2 |"^-natural" _E,2 D,2 C,4 | B,,4 F,4- | F,2 F,,2 B,,2 F,,2 | B,,2 C,2 D,2 C,B,, | %5
w: Es wolt uns|Gott ge- ne-|dig seyn,|_ und sei- nen|Se- gen ge- * *|
w: So dan- cken|Gott und lo-|ben dich,|_ die Hey- den|ü- ber al- * *|
w: Es dan- cken|Gott und lo-|ben dich,|_ das Volck gu-|ten Tha- * * *|
 A,,4 D,4 | D,4 G,2 D,2 | _E,2 D,2 C,4 | B,,4 F,4- | F,2 F,,2 B,,2 F,,2 | B,,2 C,2 D,2 C,B,, | %11
w: * ben,|sein And- litz|uns mit hel-|lem schein,|_ er leucht zum|e- wign Le- * *|
w: * le,|und al- le|Welt die fre-|we sich,|_ und sing mit|gros- sen Schal- * *|
w: * ten,|da Land bring|frücht und bes-|ser sich,|_ dein wort ist|wol ge- rah- * *|
 A,,4 D,4 |: B,,4 _E,2 B,,2 | C,2 G,,2 G,,2 C,2 | B,,4 F,4 | B,,2 C,2 D,2 G,,2 | G,4 D,4 | %17
w: * ben.|Das wir er-|ken- nen sei- ne|Werd, und|was ihm liebt auff|Er- den,|
w: * le.|Da du auff|Er- den Rich- ter|bist, und|lest die Sünd nicht|wal- ten,|
w: * ren.|Uns se- gen|Va- ter und der|Sohn, uns|segn' Gott der heil-|ge Geist,|
 B,,4 C,2 D,2 | A,,2 G,,2 B,,2 C,2 | D,2 A,,2 B,,2 G,,2 | D,2 C,2 F,4 | C,2 B,,2 F,2 C,2 | %22
w: und Je- sus|Chri- stus heil und|sterck, be- kand den|hey- den wer-|de, und sie zu|
w: dein wort die|hut und wey- de|ist, die al- les|Volck er- hal-|ten, in rech- ten|
w: dem al- le|Welt die eh- re|thut, für ihm für-|chte al- ler-|meist, nun sprecht von|
 D,2 C,B,, A,,4 | D,8 :| %24
w: Gott be- _ keh-|re.|
w: bahn zu _ wal-|len.|
w: Hezr- zen, _ A-|men.|

